src/lib/packages/icons/src/assets/line/presentation-pen.svg

<svg width="24" height="24" viewBox="0 0 24 24" fill="none" xmlns="http://www.w3.org/2000/svg">
<path d="M21 2.25H3C2.586 2.25 2.25 2.586 2.25 3C2.25 3.414 2.586 3.75 3 3.75H3.75V13C3.75 15.418 5.082 16.75 7.5 16.75H11.25V18.599L8.58398 20.376C8.23898 20.606 8.14598 21.071 8.37598 21.416C8.60498 21.761 9.07102 21.854 9.41602 21.624L12 19.901L14.584 21.624C14.712 21.709 14.856 21.75 15 21.75C15.242 21.75 15.48 21.633 15.625 21.416C15.855 21.071 15.762 20.606 15.417 20.376L12.751 18.599V16.75H16.501C18.919 16.75 20.251 15.418 20.251 13V3.75H21C21.414 3.75 21.75 3.414 21.75 3C21.75 2.586 21.414 2.25 21 2.25ZM18.75 13C18.75 14.577 18.077 15.25 16.5 15.25H7.5C5.923 15.25 5.25 14.577 5.25 13V3.75H18.75V13ZM8 14.25H10.222C10.42 14.25 10.611 14.171 10.751 14.032L16.267 8.54102C16.578 8.23202 16.749 7.81998 16.749 7.38098C16.749 6.94198 16.579 6.52997 16.269 6.21997L15.279 5.22998C14.969 4.91998 14.558 4.75 14.12 4.75C14.119 4.75 14.119 4.75 14.118 4.75C13.68 4.75 13.267 4.92206 12.958 5.23206L7.46698 10.748C7.32698 10.889 7.24902 11.079 7.24902 11.277V13.499C7.25002 13.914 7.586 14.25 8 14.25ZM14.121 6.25C14.116 6.241 14.185 6.25602 14.22 6.29102L15.21 7.28101C15.244 7.31501 15.251 7.353 15.251 7.38C15.251 7.407 15.244 7.44503 15.21 7.47803L14.574 8.11096L13.39 6.927L14.023 6.29102C14.056 6.25702 14.094 6.25 14.121 6.25ZM8.75 11.587L12.331 7.98999L13.51 9.16895L9.91302 12.75H8.75V11.587Z" fill="currentColor"/>
</svg>

<svg xmlns="http://www.w3.org/2000/svg" width="24" height="24" fill="none"><path fill="currentColor" d="M21 2.25H3a.75.75 0 0 0 0 1.5h.75V13c0 2.418 1.332 3.75 3.75 3.75h3.75v1.849l-2.666 1.777a.75.75 0 1 0 .832 1.248L12 19.901l2.584 1.723a.748.748 0 0 0 1.041-.208.75.75 0 0 0-.208-1.04l-2.666-1.777V16.75h3.75c2.418 0 3.75-1.332 3.75-3.75V3.75H21a.75.75 0 0 0 0-1.5ZM18.75 13c0 1.577-.673 2.25-2.25 2.25h-9c-1.577 0-2.25-.673-2.25-2.25V3.75h13.5V13ZM8 14.25h2.222a.753.753 0 0 0 .529-.218l5.516-5.491c.311-.309.482-.721.482-1.16 0-.439-.17-.851-.48-1.161l-.99-.99c-.31-.31-.721-.48-1.159-.48h-.002a1.63 1.63 0 0 0-1.16.482l-5.491 5.516a.75.75 0 0 0-.218.529v2.222A.752.752 0 0 0 8 14.25Zm6.121-8c-.005-.009.064.006.099.041l.99.99a.136.136 0 0 1 .041.099.133.133 0 0 1-.041.098l-.636.633-1.184-1.184.633-.636a.133.133 0 0 1 .098-.041ZM8.75 11.587l3.581-3.597 1.179 1.179-3.597 3.581H8.75v-1.163Z"/></svg>
